web/packages/design/src/ResourceIcon/assets/drift-light.svg

<svg width="72" height="72" viewBox="0 0 72 72" fill="none" xmlns="http://www.w3.org/2000/svg">
<g clip-path="url(#clip0_15940_7336)">
<path d="M58.7041 0.387845C58.8976 0.387845 59.285 0.387845 59.4789 0.387845C60.4472 0.581525 61.028 1.54992 60.4471 2.32463C60.2533 2.51831 60.2533 2.71199 60.0597 2.71199L42.2413 23.0482C42.2413 23.0482 41.8539 23.4356 41.8539 23.6292C41.273 24.5976 41.8539 25.566 43.2096 25.7597C43.4035 25.7597 43.7909 25.7597 43.7909 25.7597H49.9884C49.9884 25.7597 50.3757 25.7597 50.5696 25.7597C51.7314 25.9534 52.3127 26.9218 51.7314 27.8902C51.5379 28.0838 51.1505 28.4712 51.1505 28.4712L37.9804 43.3843C37.7869 43.5782 37.593 43.7717 37.593 43.9656C37.0121 44.9339 37.593 45.9022 38.9487 45.9022C39.3361 45.9022 43.4035 45.9022 43.7909 45.9022C44.3718 45.9022 44.953 46.2896 45.34 46.6769C45.5339 47.2578 45.3401 47.8391 44.953 48.2265C44.7591 48.42 44.5656 48.6139 44.5656 48.6139L13.7705 71.4677C13.7705 71.4677 13.3831 71.8551 13.1896 71.8551C12.8022 72.049 12.6087 72.049 12.2213 71.8551C12.0275 71.6616 11.8339 71.4677 12.0275 71.0803C12.0275 70.8868 12.2213 70.4994 12.2213 70.4994L20.5493 53.2622L20.7432 52.6809C21.3241 51.5188 20.7432 50.5505 19.581 50.357C19.3871 50.357 19.1936 50.357 19.1936 50.357H13.3831C13.1896 50.357 12.9958 50.357 12.6087 50.357C11.6401 50.1631 11.0592 49.3883 11.4466 48.42C11.4466 48.2265 11.8339 47.8391 11.8339 47.8391L22.2924 30.408C22.2924 30.408 22.4862 30.2143 22.4862 30.0206C23.0671 29.0522 22.2924 28.0838 21.1306 27.8902C20.5493 27.8902 19.581 27.8902 19.581 27.8902C19.581 27.8902 16.8696 27.8902 14.9327 27.8902H14.3518C13.3831 27.8902 12.8022 27.5028 12.8022 26.7281C12.8022 26.3407 12.8022 25.9534 12.9958 25.7597L16.0949 20.143L26.5533 1.74359L26.7472 1.35624C27.3281 0.387845 28.1029 0.000488281 29.4585 0.000488281L58.7041 0.387845Z" fill="black"/>
</g>
<defs>
<clipPath id="clip0_15940_7336">
<rect width="72" height="72" fill="white" transform="translate(0 0.000488281)"/>
</clipPath>
</defs>
</svg>

<svg xmlns="http://www.w3.org/2000/svg" width="72" height="72" fill="none" viewBox="0 0 72 72"><g clip-path="url(#clip0_15940_7336)"><path fill="#000" d="M58.704.388h.775c.968.194 1.549 1.162.968 1.937-.194.193-.194.387-.387.387L42.24 23.048s-.387.388-.387.581c-.581.969 0 1.937 1.356 2.13h7.36c1.161.194 1.743 1.163 1.161 2.131l-.58.581-13.17 14.913c-.194.194-.388.388-.388.582-.58.968 0 1.936 1.356 1.936h4.842c.58 0 1.162.388 1.549.775.194.58 0 1.162-.387 1.55l-.387.387L13.77 71.468s-.387.387-.58.387c-.388.194-.581.194-.969 0-.194-.193-.387-.387-.194-.775 0-.193.194-.58.194-.58l8.328-17.238.194-.581c.581-1.162 0-2.13-1.162-2.324h-6.972c-.969-.194-1.55-.969-1.162-1.937 0-.194.387-.58.387-.58l10.458-17.432s.194-.194.194-.387c.581-.969-.194-1.937-1.355-2.13h-6.779c-.969 0-1.55-.388-1.55-1.163 0-.387 0-.775.194-.968l3.099-5.617 10.458-18.4.194-.387C27.328.388 28.103 0 29.46 0z"/></g><defs><clipPath id="clip0_15940_7336"><path fill="#fff" d="M0 0h72v72H0z"/></clipPath></defs></svg>
